X:1510
L:1/4
Q:1/4=144
M:3/4
K:Ddor
 G | A G A | c3 | A3- | A2 G | F G E | D3- | D2 || d | d c d | e2 d | c3 | A A G | A3- | A3- | 
 A2 || A/A/ | d e d | e3 | d2 c | A G F | G3- | G3- | G || A A | d3/2 c/ A | G A c | E/ D3/2 C | 
 D3- | D3- | D2 || A | c A2- | A3- | A3- | A2 A | c A2- | A3- | A2 G | F G E | D3- | D3- | D2 || 
 A | c A G | A3 | d3 | A3- | A3 | G A E | D3- | D3 ||

